src/lib/packages/icons/src/assets/line/folder-lock.svg

<svg xmlns="http://www.w3.org/2000/svg" width="24" height="24" fill="none"><path fill="currentColor" d="M18 6.25h-4.689l-2.78-2.78a.749.749 0 0 0-.53-.22h-4c-2.418 0-3.75 1.332-3.75 3.75v10c0 2.418 1.332 3.75 3.75 3.75h12c2.418 0 3.75-1.332 3.75-3.75v-7C21.75 7.582 20.418 6.25 18 6.25ZM20.25 17c0 1.577-.673 2.25-2.25 2.25H6c-1.577 0-2.25-.673-2.25-2.25V7c0-1.577.673-2.25 2.25-2.25h3.689l2.78 2.78c.141.141.331.22.53.22h5c1.577 0 2.25.673 2.25 2.25v7h.001Zm-6-4.573V11.5c0-1.241-1.01-2.25-2.25-2.25a2.253 2.253 0 0 0-2.25 2.25v.927c-.629.277-1 .873-1 1.698v1.75c0 1.156.719 1.875 1.875 1.875h2.75c1.156 0 1.875-.719 1.875-1.875v-1.75c0-.825-.371-1.421-1-1.698ZM12 10.75a.75.75 0 0 1 .75.75v.75h-1.5v-.75a.75.75 0 0 1 .75-.75Zm1.75 5.125c0 .336-.038.375-.375.375h-2.75c-.337 0-.375-.039-.375-.375v-1.75c0-.279.037-.35.239-.367l.011.002c.007 0 .013-.004.021-.004.034-.002.061-.006.104-.006h2.75c.044 0 .07.004.104.006.007 0 .013.004.021.004l.011-.002c.202.017.239.088.239.367v1.75Z"/></svg>

<svg width="24" height="24" viewBox="0 0 24 24" fill="none" xmlns="http://www.w3.org/2000/svg">
<path d="M18 6.25H13.311L10.531 3.47C10.39 3.329 10.2 3.25 10.001 3.25H6.00098C3.58298 3.25 2.25098 4.582 2.25098 7V17C2.25098 19.418 3.58298 20.75 6.00098 20.75H18.001C20.419 20.75 21.751 19.418 21.751 17V10C21.75 7.582 20.418 6.25 18 6.25ZM20.25 17C20.25 18.577 19.577 19.25 18 19.25H6C4.423 19.25 3.75 18.577 3.75 17V7C3.75 5.423 4.423 4.75 6 4.75H9.68896L12.469 7.53C12.61 7.671 12.8 7.75 12.999 7.75H17.999C19.576 7.75 20.249 8.423 20.249 10V17H20.25ZM14.25 12.427V11.5C14.25 10.259 13.24 9.25 12 9.25C10.76 9.25 9.75 10.259 9.75 11.5V12.427C9.121 12.704 8.75 13.3 8.75 14.125V15.875C8.75 17.031 9.469 17.75 10.625 17.75H13.375C14.531 17.75 15.25 17.031 15.25 15.875V14.125C15.25 13.3 14.879 12.704 14.25 12.427ZM12 10.75C12.413 10.75 12.75 11.086 12.75 11.5V12.25H11.25V11.5C11.25 11.086 11.587 10.75 12 10.75ZM13.75 15.875C13.75 16.211 13.712 16.25 13.375 16.25H10.625C10.288 16.25 10.25 16.211 10.25 15.875V14.125C10.25 13.846 10.287 13.775 10.489 13.758C10.493 13.758 10.496 13.76 10.5 13.76C10.507 13.76 10.513 13.756 10.521 13.756C10.555 13.754 10.582 13.75 10.625 13.75H13.375C13.419 13.75 13.445 13.754 13.479 13.756C13.486 13.756 13.492 13.76 13.5 13.76C13.504 13.76 13.507 13.758 13.511 13.758C13.713 13.775 13.75 13.846 13.75 14.125V15.875Z" fill="currentColor"/>
</svg>
